src/pos-icons/wordpress.svg

<svg height="24" viewBox="0 0 24 24" width="24" xmlns="http://www.w3.org/2000/svg"><path d="m3.42 12c0-1.24.27-2.42.74-3.5l4.1 11.22c-2.87-1.39-4.84-4.32-4.84-7.72m14.37-.43c0 .73-.29 1.58-.65 2.77l-.86 2.86-3.1-9.2.98-.1c.47-.06.41-.74-.05-.71 0 0-1.39.11-2.29.11l-2.26-.11c-.46-.03-.51.68-.06.71l.91.1 1.34 3.64-1.88 5.63-3.13-9.27.99-.1c.46-.06.4-.74-.06-.71 0 0-1.39.11-2.29.11l-.55-.01c1.54-2.33 4.17-3.87 7.17-3.87 2.23 0 4.27.86 5.79 2.25h-.11c-.84 0-1.44.73-1.44 1.52 0 .71.41 1.31.84 2.01.33.57.71 1.3.71 2.37m-5.64 1.18 2.64 7.22.06.12c-.89.32-1.85.49-2.85.49-.84 0-1.65-.12-2.42-.35zm7.38-4.87c.67 1.23 1.05 2.62 1.05 4.12 0 3.16-1.72 5.93-4.27 7.41l2.62-7.57c.49-1.22.66-2.2.66-3.07zm-7.53-5.88a10 10 0 0 1 10 10 10 10 0 0 1 -10 10 10 10 0 0 1 -10-10 10 10 0 0 1 10-10m0 19.54c5.26 0 9.54-4.28 9.54-9.54s-4.28-9.54-9.54-9.54-9.54 4.28-9.54 9.54 4.28 9.54 9.54 9.54z"/></svg>

<?xml version="1.0" encoding="UTF-8"?><!DOCTYPE svg PUBLIC "-//W3C//DTD SVG 1.1//EN" "http://www.w3.org/Graphics/SVG/1.1/DTD/svg11.dtd"><svg xmlns="http://www.w3.org/2000/svg" xmlns:xlink="http://www.w3.org/1999/xlink" version="1.1" id="mdi-wordpress" width="24" height="24" viewBox="0 0 24 24"><path d="M3.42,12C3.42,10.76 3.69,9.58 4.16,8.5L8.26,19.72C5.39,18.33 3.42,15.4 3.42,12M17.79,11.57C17.79,12.3 17.5,13.15 17.14,14.34L16.28,17.2L13.18,8L14.16,7.9C14.63,7.84 14.57,7.16 14.11,7.19C14.11,7.19 12.72,7.3 11.82,7.3L9.56,7.19C9.1,7.16 9.05,7.87 9.5,7.9L10.41,8L11.75,11.64L9.87,17.27L6.74,8L7.73,7.9C8.19,7.84 8.13,7.16 7.67,7.19C7.67,7.19 6.28,7.3 5.38,7.3L4.83,7.29C6.37,4.96 9,3.42 12,3.42C14.23,3.42 16.27,4.28 17.79,5.67H17.68C16.84,5.67 16.24,6.4 16.24,7.19C16.24,7.9 16.65,8.5 17.08,9.2C17.41,9.77 17.79,10.5 17.79,11.57M12.15,12.75L14.79,19.97L14.85,20.09C13.96,20.41 13,20.58 12,20.58C11.16,20.58 10.35,20.46 9.58,20.23L12.15,12.75M19.53,7.88C20.2,9.11 20.58,10.5 20.58,12C20.58,15.16 18.86,17.93 16.31,19.41L18.93,11.84C19.42,10.62 19.59,9.64 19.59,8.77L19.53,7.88M12,2A10,10 0 0,1 22,12A10,10 0 0,1 12,22A10,10 0 0,1 2,12A10,10 0 0,1 12,2M12,21.54C17.26,21.54 21.54,17.26 21.54,12C21.54,6.74 17.26,2.46 12,2.46C6.74,2.46 2.46,6.74 2.46,12C2.46,17.26 6.74,21.54 12,21.54Z" /></svg>
